icons/blender/blender-line-wordmark.svg

<?xml version="1.0" encoding="UTF-8" standalone="no"?>
<svg
   width="128px"
   height="128px"
   viewBox="0 0 128 34"
   version="1.1"
   id="svg44"
   sodipodi:docname="blender-line-wordmark.svg"
   inkscape:version="1.1.1 (c3084ef, 2021-09-22)"
   xmlns:inkscape="http://www.inkscape.org/namespaces/inkscape"
   xmlns:sodipodi="http://sodipodi.sourceforge.net/DTD/sodipodi-0.dtd"
   xmlns:xlink="http://www.w3.org/1999/xlink"
   xmlns="http://www.w3.org/2000/svg"
   xmlns:svg="http://www.w3.org/2000/svg">
  <sodipodi:namedview
     id="namedview46"
     pagecolor="#ffffff"
     bordercolor="#666666"
     borderopacity="1.0"
     inkscape:pageshadow="2"
     inkscape:pageopacity="0.0"
     inkscape:pagecheckerboard="true"
     showgrid="false"
     inkscape:zoom="6.7664987"
     inkscape:cx="34.508246"
     inkscape:cy="64.361203"
     inkscape:window-width="1670"
     inkscape:window-height="987"
     inkscape:window-x="1121"
     inkscape:window-y="30"
     inkscape:window-maximized="0"
     inkscape:current-layer="svg44" />
  <defs
     id="defs17">
    <g
       id="g15">
      <symbol
         overflow="visible"
         id="glyph0-0">
        <path
           style="stroke:none;"
           d="M 0.328125 -2.5 L 1.796875 -2.5 L 1.796875 0 L 0.328125 0 Z M 0.515625 -0.171875 L 1.609375 -0.171875 L 1.609375 -2.328125 L 0.515625 -2.328125 Z M 0.515625 -0.171875 "
           id="path9" />
      </symbol>
      <symbol
         overflow="visible"
         id="glyph0-1">
        <path
           style="stroke:none;"
           d="M 1.296875 -1.3125 L 1.421875 -1.3125 C 1.503906 -1.3125 1.566406 -1.332031 1.609375 -1.375 C 1.648438 -1.414062 1.671875 -1.472656 1.671875 -1.546875 C 1.671875 -1.628906 1.648438 -1.6875 1.609375 -1.71875 C 1.566406 -1.75 1.5 -1.765625 1.40625 -1.765625 L 1.296875 -1.765625 Z M 2 -1.546875 C 2 -1.359375 1.910156 -1.226562 1.734375 -1.15625 L 2.15625 -0.484375 L 1.78125 -0.484375 L 1.453125 -1.0625 L 1.296875 -1.0625 L 1.296875 -0.484375 L 0.96875 -0.484375 L 0.96875 -2.015625 L 1.421875 -2.015625 C 1.617188 -2.015625 1.765625 -1.972656 1.859375 -1.890625 C 1.953125 -1.816406 2 -1.703125 2 -1.546875 Z M 0.171875 -1.25 C 0.171875 -1.476562 0.226562 -1.691406 0.34375 -1.890625 C 0.457031 -2.085938 0.613281 -2.242188 0.8125 -2.359375 C 1.019531 -2.472656 1.238281 -2.53125 1.46875 -2.53125 C 1.707031 -2.53125 1.925781 -2.472656 2.125 -2.359375 C 2.320312 -2.242188 2.476562 -2.085938 2.59375 -1.890625 C 2.71875 -1.691406 2.78125 -1.476562 2.78125 -1.25 C 2.78125 -1.019531 2.722656 -0.804688 2.609375 -0.609375 C 2.492188 -0.421875 2.332031 -0.265625 2.125 -0.140625 C 1.925781 -0.0234375 1.707031 0.03125 1.46875 0.03125 C 1.226562 0.03125 1.007812 -0.0234375 0.8125 -0.140625 C 0.613281 -0.253906 0.457031 -0.410156 0.34375 -0.609375 C 0.226562 -0.804688 0.171875 -1.019531 0.171875 -1.25 Z M 0.390625 -1.25 C 0.390625 -1.050781 0.4375 -0.867188 0.53125 -0.703125 C 0.625 -0.546875 0.753906 -0.414062 0.921875 -0.3125 C 1.097656 -0.21875 1.28125 -0.171875 1.46875 -0.171875 C 1.664062 -0.171875 1.847656 -0.21875 2.015625 -0.3125 C 2.191406 -0.414062 2.328125 -0.546875 2.421875 -0.703125 C 2.515625 -0.867188 2.5625 -1.050781 2.5625 -1.25 C 2.5625 -1.4375 2.507812 -1.613281 2.40625 -1.78125 C 2.3125 -1.945312 2.179688 -2.078125 2.015625 -2.171875 C 1.847656 -2.273438 1.664062 -2.328125 1.46875 -2.328125 C 1.28125 -2.328125 1.101562 -2.28125 0.9375 -2.1875 C 0.769531 -2.09375 0.632812 -1.960938 0.53125 -1.796875 C 0.4375 -1.628906 0.390625 -1.445312 0.390625 -1.25 Z M 0.390625 -1.25 "
           id="path12" />
      </symbol>
    </g>
  </defs>
  <g
     id="surface1"
     transform="matrix(1.0115121,0,0,1,-0.74257014,0.13817031)">
    <path
       style="fill:#235785;fill-opacity:1;fill-rule:nonzero;stroke:none"
       d="m 21.238281,18.824219 c 0.07422,-1.296875 0.71875,-2.441407 1.6875,-3.25 0.949219,-0.796875 2.230469,-1.285157 3.625,-1.285157 1.394531,0 2.675781,0.488282 3.625,1.285157 0.96875,0.808593 1.613281,1.953125 1.6875,3.25 0.07031,1.332031 -0.46875,2.570312 -1.421875,3.488281 -0.96875,0.933594 -2.347656,1.519531 -3.890625,1.519531 -1.542969,0 -2.925781,-0.585937 -3.894531,-1.519531 -0.949219,-0.917969 -1.492188,-2.15625 -1.417969,-3.488281 z m 0,0"
       id="path21" />
    <path
       style="fill:#e87500;fill-opacity:1;fill-rule:nonzero;stroke:none"
       d="m 12.78125,21.453125 c 0.01172,0.507813 0.175781,1.492187 0.417969,2.265625 0.519531,1.628906 1.394531,3.140625 2.613281,4.46875 1.25,1.367188 2.789062,2.464844 4.566406,3.246094 C 22.25,32.25 24.273438,32.667969 26.375,32.664062 c 2.101562,-0.0039 4.128906,-0.429687 5.996094,-1.253906 1.777344,-0.785156 3.316406,-1.890625 4.566406,-3.257812 1.214844,-1.335938 2.089844,-2.847656 2.609375,-4.476563 0.257813,-0.824219 0.421875,-1.660156 0.488281,-2.5 0.06641,-0.828125 0.03906,-1.65625 -0.08203,-2.484375 -0.230469,-1.613281 -0.792969,-3.125 -1.664063,-4.503906 -0.792968,-1.265625 -1.816406,-2.378906 -3.035156,-3.3125 h 0.0039 L 22.96875,1.542969 C 22.95703,1.535159 22.94922,1.523438 22.9375,1.519531 22.128906,0.90625 20.773438,0.90625 19.886719,1.519531 18.992188,2.140625 18.890625,3.167969 19.6875,3.816406 h -0.0039 l 5.125,4.125 L 9.1875,7.957031 H 9.167969 c -1.292969,0 -2.535157,0.839844 -2.777344,1.898438 -0.253906,1.078125 0.621094,1.972656 1.964844,1.976562 v 0.0078 l 7.917969,-0.01563 -14.128907,10.726562 c -0.019531,0.01172 -0.039062,0.02344 -0.054687,0.03906 -1.332032,1.007812 -1.765625,2.6875 -0.925782,3.75 0.851563,1.078125 2.664063,1.082031 4.011719,0.0039 l 7.710938,-6.238281 c 0,0 -0.113281,0.839843 -0.105469,1.347656 z m 19.816406,2.820313 c -1.589844,1.601562 -3.8125,2.507812 -6.222656,2.515624 -2.410156,0.0039 -4.632812,-0.898437 -6.222656,-2.496093 -0.773438,-0.777344 -1.34375,-1.675781 -1.699219,-2.628907 -0.34375,-0.9375 -0.476563,-1.933593 -0.386719,-2.9375 0.08203,-0.984374 0.378906,-1.917968 0.851563,-2.765624 0.460937,-0.835938 1.101562,-1.585938 1.886719,-2.222657 1.546874,-1.246093 3.511718,-1.921875 5.570312,-1.921875 2.058594,-0.0039 4.023438,0.664063 5.566406,1.90625 0.789063,0.632813 1.425782,1.382813 1.890625,2.214844 0.472657,0.847656 0.765625,1.78125 0.851563,2.765625 0.08984,1 -0.04297,1.996094 -0.390625,2.933594 -0.351563,0.957031 -0.917969,1.855469 -1.695313,2.636719 z m 0,0"
       id="path23" />
    <path
       style="fill:#235785;fill-opacity:1;fill-rule:nonzero;stroke:none"
       d="m 105.42578,18.804688 c 0.1211,-1.3125 1.14453,-2.140626 2.70703,-2.140626 1.5625,0 2.58594,0.828126 2.70703,2.140626 z m 5.25391,3.230468 c -0.40235,0.972656 -1.34375,1.546875 -2.62891,1.546875 -1.60156,0 -2.68359,-0.992187 -2.72656,-2.558593 h 9.22656 V 20.5625 c 0,-3.917969 -2.32812,-6.125 -6.5,-6.125 -4.04687,0 -6.49609,2.226562 -6.49609,5.714844 0,3.507812 2.48828,5.730468 6.49609,5.730468 2.41016,0 4.27344,-0.816406 5.42578,-2.25 z m 0,0"
       id="path25" />
    <path
       style="fill:#235785;fill-opacity:1;fill-rule:nonzero;stroke:none"
       d="m 64.492188,18.808594 c 0.121093,-1.308594 1.144531,-2.136719 2.710937,-2.136719 1.5625,0 2.582031,0.828125 2.703125,2.136719 z m 5.253906,3.234375 c -0.398438,0.972656 -1.34375,1.546875 -2.628906,1.546875 -1.601563,0 -2.683594,-0.992188 -2.726563,-2.558594 h 9.222656 v -0.457031 c 0,-3.925781 -2.324219,-6.128907 -6.496093,-6.128907 -4.050782,0 -6.492188,2.226563 -6.492188,5.714844 0,3.507813 2.484375,5.726563 6.492188,5.726563 2.40625,0 4.273437,-0.8125 5.429687,-2.246094 z m 0,0"
       id="path27" />
    <path
       style="fill:#235785;fill-opacity:1;fill-rule:nonzero;stroke:none"
       d="m 56.472656,12.070312 h 3.324219 V 25.53125 h -3.324219 z m 0,0"
       id="path29" />
    <path
       style="fill:#235785;fill-opacity:1;fill-rule:nonzero;stroke:none"
       d="m 74.441406,15.648438 h 3.34375 v 0.800781 c 1.1875,-1.25 2.609375,-1.882813 4.210938,-1.882813 1.847656,0 3.246094,0.632813 3.96875,1.707032 0.605468,0.890624 0.644531,1.960937 0.644531,3.371093 v 5.886719 h -3.351563 v -5.171875 c 0,-2.148437 -0.4375,-3.136719 -2.339843,-3.136719 -1.925781,0 -3.132813,1.132813 -3.132813,3.039063 v 5.269531 h -3.34375 z m 0,0"
       id="path31" />
    <path
       style="fill:#235785;fill-opacity:1;fill-rule:nonzero;stroke:none"
       d="m 97.386719,20.320312 c 0,1.84375 -1.246094,3.050782 -3.171875,3.050782 -1.925782,0 -3.171875,-1.167969 -3.171875,-3.03125 0,-1.890625 1.226562,-3.054688 3.171875,-3.054688 1.925781,0 3.171875,1.1875 3.171875,3.035156 z m 0,-4.226562 c -0.847657,-0.894531 -2.070313,-1.386719 -3.773438,-1.386719 -3.667969,0 -6.175781,2.238281 -6.175781,5.59375 0,3.289063 2.488281,5.589844 6.117188,5.589844 1.664062,0 2.882812,-0.417969 3.832031,-1.351563 v 0.992188 h 3.347661 V 11.214844 l -3.347661,0.855468 z m 0,0"
       id="path33" />
    <path
       style="fill:#235785;fill-opacity:1;fill-rule:nonzero;stroke:none"
       d="m 48.867188,17.285156 c 1.945312,0 3.167968,1.167969 3.167968,3.058594 0,1.863281 -1.242187,3.027344 -3.167968,3.027344 -1.925782,0 -3.167969,-1.207032 -3.167969,-3.050782 0,-1.847656 1.242187,-3.035156 3.167969,-3.035156 z M 45.699219,12.070312 42.351562,11.21875 v 14.316406 h 3.347657 v -0.992187 c 0.941406,0.933593 2.164062,1.347656 3.832031,1.347656 3.628906,0 6.113281,-2.300781 6.113281,-5.589844 0,-3.355469 -2.507812,-5.59375 -6.175781,-5.59375 -1.703125,0 -2.925781,0.492188 -3.769531,1.390625 z m 0,0"
       id="path35" />
    <path
       style="fill:#235785;fill-opacity:1;fill-rule:nonzero;stroke:none"
       d="m 115.375,25.535156 v -9.886718 h 3.34766 v 0.613281 c 1.0039,-1.195313 2.0625,-1.789063 3.26953,-1.789063 0.24219,0 0.54297,0.03906 0.9414,0.07813 v 2.816407 c -0.32031,-0.03906 -0.67968,-0.03906 -1.0625,-0.03906 -1.94531,0 -3.14843,1.269531 -3.14843,3.425781 v 4.78125 z m 0,0"
       id="path37" />
    <g
       style="fill:#216191;fill-opacity:1"
       id="g41">
      <use
         xlink:href="#glyph0-1"
         x="124.49609"
         y="15.00193"
         id="use39"
         width="100%"
         height="100%" />
    </g>
  </g>
</svg>

<?xml version="1.0" encoding="UTF-8"?>
<svg xmlns="http://www.w3.org/2000/svg" xmlns:xlink="http://www.w3.org/1999/xlink" width="128px" height="128px" viewBox="0 0 128 34" version="1.1">
<defs>
<g>
<symbol overflow="visible" id="glyph0-0">
<path style="stroke:none;" d="M 0.328125 -2.5 L 1.796875 -2.5 L 1.796875 0 L 0.328125 0 Z M 0.515625 -0.171875 L 1.609375 -0.171875 L 1.609375 -2.328125 L 0.515625 -2.328125 Z M 0.515625 -0.171875 "/>
</symbol>
<symbol overflow="visible" id="glyph0-1">
<path style="stroke:none;" d="M 1.296875 -1.3125 L 1.421875 -1.3125 C 1.503906 -1.3125 1.566406 -1.332031 1.609375 -1.375 C 1.648438 -1.414062 1.671875 -1.472656 1.671875 -1.546875 C 1.671875 -1.628906 1.648438 -1.6875 1.609375 -1.71875 C 1.566406 -1.75 1.5 -1.765625 1.40625 -1.765625 L 1.296875 -1.765625 Z M 2 -1.546875 C 2 -1.359375 1.910156 -1.226562 1.734375 -1.15625 L 2.15625 -0.484375 L 1.78125 -0.484375 L 1.453125 -1.0625 L 1.296875 -1.0625 L 1.296875 -0.484375 L 0.96875 -0.484375 L 0.96875 -2.015625 L 1.421875 -2.015625 C 1.617188 -2.015625 1.765625 -1.972656 1.859375 -1.890625 C 1.953125 -1.816406 2 -1.703125 2 -1.546875 Z M 0.171875 -1.25 C 0.171875 -1.476562 0.226562 -1.691406 0.34375 -1.890625 C 0.457031 -2.085938 0.613281 -2.242188 0.8125 -2.359375 C 1.019531 -2.472656 1.238281 -2.53125 1.46875 -2.53125 C 1.707031 -2.53125 1.925781 -2.472656 2.125 -2.359375 C 2.320312 -2.242188 2.476562 -2.085938 2.59375 -1.890625 C 2.71875 -1.691406 2.78125 -1.476562 2.78125 -1.25 C 2.78125 -1.019531 2.722656 -0.804688 2.609375 -0.609375 C 2.492188 -0.421875 2.332031 -0.265625 2.125 -0.140625 C 1.925781 -0.0234375 1.707031 0.03125 1.46875 0.03125 C 1.226562 0.03125 1.007812 -0.0234375 0.8125 -0.140625 C 0.613281 -0.253906 0.457031 -0.410156 0.34375 -0.609375 C 0.226562 -0.804688 0.171875 -1.019531 0.171875 -1.25 Z M 0.390625 -1.25 C 0.390625 -1.050781 0.4375 -0.867188 0.53125 -0.703125 C 0.625 -0.546875 0.753906 -0.414062 0.921875 -0.3125 C 1.097656 -0.21875 1.28125 -0.171875 1.46875 -0.171875 C 1.664062 -0.171875 1.847656 -0.21875 2.015625 -0.3125 C 2.191406 -0.414062 2.328125 -0.546875 2.421875 -0.703125 C 2.515625 -0.867188 2.5625 -1.050781 2.5625 -1.25 C 2.5625 -1.4375 2.507812 -1.613281 2.40625 -1.78125 C 2.3125 -1.945312 2.179688 -2.078125 2.015625 -2.171875 C 1.847656 -2.273438 1.664062 -2.328125 1.46875 -2.328125 C 1.28125 -2.328125 1.101562 -2.28125 0.9375 -2.1875 C 0.769531 -2.09375 0.632812 -1.960938 0.53125 -1.796875 C 0.4375 -1.628906 0.390625 -1.445312 0.390625 -1.25 Z M 0.390625 -1.25 "/>
</symbol>
</g>
</defs>
<g id="surface1">
<path style=" stroke:none;fill-rule:nonzero;fill:rgb(100%,100%,100%);fill-opacity:1;" d="M 16.207031 18.59375 C 16.351562 16.066406 17.601562 13.839844 19.492188 12.257812 C 21.34375 10.707031 23.839844 9.757812 26.558594 9.757812 C 29.277344 9.757812 31.769531 10.707031 33.625 12.257812 C 35.511719 13.839844 36.761719 16.066406 36.910156 18.59375 C 37.050781 21.191406 35.996094 23.605469 34.144531 25.394531 C 32.253906 27.214844 29.566406 28.355469 26.558594 28.355469 C 23.550781 28.355469 20.859375 27.214844 18.96875 25.394531 C 17.117188 23.605469 16.0625 21.191406 16.207031 18.59375 Z M 16.207031 18.59375 "/>
<path style=" stroke:none;fill-rule:nonzero;fill:rgb(14.901961%,34.117647%,52.941176%);fill-opacity:1;" d="M 21.238281 18.824219 C 21.3125 17.527344 21.957031 16.382812 22.925781 15.574219 C 23.875 14.777344 25.15625 14.289062 26.550781 14.289062 C 27.945312 14.289062 29.226562 14.777344 30.175781 15.574219 C 31.144531 16.382812 31.789062 17.527344 31.863281 18.824219 C 31.933594 20.15625 31.394531 21.394531 30.441406 22.3125 C 29.472656 23.246094 28.09375 23.832031 26.550781 23.832031 C 25.007812 23.832031 23.625 23.246094 22.65625 22.3125 C 21.707031 21.394531 21.164062 20.15625 21.238281 18.824219 Z M 21.238281 18.824219 "/>
<path style=" stroke:none;fill-rule:nonzero;fill:rgb(91.764706%,46.27451%,0%);fill-opacity:1;" d="M 12.78125 21.453125 C 12.792969 21.960938 12.957031 22.945312 13.199219 23.71875 C 13.71875 25.347656 14.59375 26.859375 15.8125 28.1875 C 17.0625 29.554688 18.601562 30.652344 20.378906 31.433594 C 22.25 32.25 24.273438 32.667969 26.375 32.664062 C 28.476562 32.660156 30.503906 32.234375 32.371094 31.410156 C 34.148438 30.625 35.6875 29.519531 36.9375 28.152344 C 38.152344 26.816406 39.027344 25.304688 39.546875 23.675781 C 39.804688 22.851562 39.96875 22.015625 40.035156 21.175781 C 40.101562 20.347656 40.074219 19.519531 39.953125 18.691406 C 39.722656 17.078125 39.160156 15.566406 38.289062 14.1875 C 37.496094 12.921875 36.472656 11.808594 35.253906 10.875 L 35.257812 10.875 L 22.96875 1.542969 C 22.957031 1.535156 22.949219 1.523438 22.9375 1.519531 C 22.128906 0.90625 20.773438 0.90625 19.886719 1.519531 C 18.992188 2.140625 18.890625 3.167969 19.6875 3.816406 L 19.683594 3.816406 L 24.808594 7.941406 L 9.1875 7.957031 L 9.167969 7.957031 C 7.875 7.957031 6.632812 8.796875 6.390625 9.855469 C 6.136719 10.933594 7.011719 11.828125 8.355469 11.832031 L 8.355469 11.839844 L 16.273438 11.824219 L 2.144531 22.550781 C 2.125 22.5625 2.105469 22.574219 2.089844 22.589844 C 0.757812 23.597656 0.324219 25.277344 1.164062 26.339844 C 2.015625 27.417969 3.828125 27.421875 5.175781 26.34375 L 12.886719 20.105469 C 12.886719 20.105469 12.773438 20.945312 12.78125 21.453125 Z M 32.597656 24.273438 C 31.007812 25.875 28.785156 26.78125 26.375 26.789062 C 23.964844 26.792969 21.742188 25.890625 20.152344 24.292969 C 19.378906 23.515625 18.808594 22.617188 18.453125 21.664062 C 18.109375 20.726562 17.976562 19.730469 18.066406 18.726562 C 18.148438 17.742188 18.445312 16.808594 18.917969 15.960938 C 19.378906 15.125 20.019531 14.375 20.804688 13.738281 C 22.351562 12.492188 24.316406 11.816406 26.375 11.816406 C 28.433594 11.8125 30.398438 12.480469 31.941406 13.722656 C 32.730469 14.355469 33.367188 15.105469 33.832031 15.9375 C 34.304688 16.785156 34.597656 17.71875 34.683594 18.703125 C 34.773438 19.703125 34.640625 20.699219 34.292969 21.636719 C 33.941406 22.59375 33.375 23.492188 32.597656 24.273438 Z M 32.597656 24.273438 "/>
<path style=" stroke:none;fill-rule:nonzero;fill:rgb(14.901961%,34.117647%,52.941176%);fill-opacity:1;" d="M 105.425781 18.804688 C 105.546875 17.492188 106.570312 16.664062 108.132812 16.664062 C 109.695312 16.664062 110.71875 17.492188 110.839844 18.804688 Z M 110.679688 22.035156 C 110.277344 23.007812 109.335938 23.582031 108.050781 23.582031 C 106.449219 23.582031 105.367188 22.589844 105.324219 21.023438 L 114.550781 21.023438 L 114.550781 20.5625 C 114.550781 16.644531 112.222656 14.4375 108.050781 14.4375 C 104.003906 14.4375 101.554688 16.664062 101.554688 20.152344 C 101.554688 23.660156 104.042969 25.882812 108.050781 25.882812 C 110.460938 25.882812 112.324219 25.066406 113.476562 23.632812 Z M 110.679688 22.035156 "/>
<path style=" stroke:none;fill-rule:nonzero;fill:rgb(14.901961%,34.117647%,52.941176%);fill-opacity:1;" d="M 64.492188 18.808594 C 64.613281 17.5 65.636719 16.671875 67.203125 16.671875 C 68.765625 16.671875 69.785156 17.5 69.90625 18.808594 Z M 69.746094 22.042969 C 69.347656 23.015625 68.402344 23.589844 67.117188 23.589844 C 65.515625 23.589844 64.433594 22.597656 64.390625 21.03125 L 73.613281 21.03125 L 73.613281 20.574219 C 73.613281 16.648438 71.289062 14.445312 67.117188 14.445312 C 63.066406 14.445312 60.625 16.671875 60.625 20.160156 C 60.625 23.667969 63.109375 25.886719 67.117188 25.886719 C 69.523438 25.886719 71.390625 25.074219 72.546875 23.640625 Z M 69.746094 22.042969 "/>
<path style=" stroke:none;fill-rule:nonzero;fill:rgb(14.901961%,34.117647%,52.941176%);fill-opacity:1;" d="M 56.472656 12.070312 L 59.796875 12.070312 L 59.796875 25.53125 L 56.472656 25.53125 Z M 56.472656 12.070312 "/>
<path style=" stroke:none;fill-rule:nonzero;fill:rgb(14.901961%,34.117647%,52.941176%);fill-opacity:1;" d="M 74.441406 15.648438 L 77.785156 15.648438 L 77.785156 16.449219 C 78.972656 15.199219 80.394531 14.566406 81.996094 14.566406 C 83.84375 14.566406 85.242188 15.199219 85.964844 16.273438 C 86.570312 17.164062 86.609375 18.234375 86.609375 19.644531 L 86.609375 25.53125 L 83.257812 25.53125 L 83.257812 20.359375 C 83.257812 18.210938 82.820312 17.222656 80.917969 17.222656 C 78.992188 17.222656 77.785156 18.355469 77.785156 20.261719 L 77.785156 25.53125 L 74.441406 25.53125 Z M 74.441406 15.648438 "/>
<path style=" stroke:none;fill-rule:nonzero;fill:rgb(14.901961%,34.117647%,52.941176%);fill-opacity:1;" d="M 97.386719 20.320312 C 97.386719 22.164062 96.140625 23.371094 94.214844 23.371094 C 92.289062 23.371094 91.042969 22.203125 91.042969 20.339844 C 91.042969 18.449219 92.269531 17.285156 94.214844 17.285156 C 96.140625 17.285156 97.386719 18.472656 97.386719 20.320312 Z M 97.386719 16.09375 C 96.539062 15.199219 95.316406 14.707031 93.613281 14.707031 C 89.945312 14.707031 87.4375 16.945312 87.4375 20.300781 C 87.4375 23.589844 89.925781 25.890625 93.554688 25.890625 C 95.21875 25.890625 96.4375 25.472656 97.386719 24.539062 L 97.386719 25.53125 L 100.734375 25.53125 L 100.734375 11.214844 L 97.386719 12.070312 Z M 97.386719 16.09375 "/>
<path style=" stroke:none;fill-rule:nonzero;fill:rgb(14.901961%,34.117647%,52.941176%);fill-opacity:1;" d="M 48.867188 17.285156 C 50.8125 17.285156 52.035156 18.453125 52.035156 20.34375 C 52.035156 22.207031 50.792969 23.371094 48.867188 23.371094 C 46.941406 23.371094 45.699219 22.164062 45.699219 20.320312 C 45.699219 18.472656 46.941406 17.285156 48.867188 17.285156 Z M 45.699219 12.070312 L 42.351562 11.21875 L 42.351562 25.535156 L 45.699219 25.535156 L 45.699219 24.542969 C 46.640625 25.476562 47.863281 25.890625 49.53125 25.890625 C 53.160156 25.890625 55.644531 23.589844 55.644531 20.300781 C 55.644531 16.945312 53.136719 14.707031 49.46875 14.707031 C 47.765625 14.707031 46.542969 15.199219 45.699219 16.097656 Z M 45.699219 12.070312 "/>
<path style=" stroke:none;fill-rule:nonzero;fill:rgb(14.901961%,34.117647%,52.941176%);fill-opacity:1;" d="M 115.375 25.535156 L 115.375 15.648438 L 118.722656 15.648438 L 118.722656 16.261719 C 119.726562 15.066406 120.785156 14.472656 121.992188 14.472656 C 122.234375 14.472656 122.535156 14.511719 122.933594 14.550781 L 122.933594 17.367188 C 122.613281 17.328125 122.253906 17.328125 121.871094 17.328125 C 119.925781 17.328125 118.722656 18.597656 118.722656 20.753906 L 118.722656 25.535156 Z M 115.375 25.535156 "/>
<g style="fill:rgb(13.72549%,38.039216%,57.254902%);fill-opacity:1;">
  <use xlink:href="#glyph0-1" x="124.496094" y="15.00193"/>
</g>
</g>
</svg>
